X: 14924
T: Gavin's Piano
R: jig
M: 6/8
K: Dmixolydian
A2G FDD|=cAB cBc|dcA ~G3|Ade ~f2g|
abg ~a2g|fde ~f2e|dcA GFG|1 Adc dFG:|2 Adc d(3efg||
afe ~d2e|fed fga|ged =c2d|ed=c efg|
age dcd|efg age|dcA GFG|1 Adc d(3efg:|2 Adc dFG||

